UI/Map-View/SVG/distance_solid_24px.svg

<svg width="24" height="24" viewBox="0 0 24 24" fill="none" xmlns="http://www.w3.org/2000/svg">
<path d="M2 20C2 20.5304 2.21071 21.0391 2.58579 21.4142C2.96086 21.7893 3.46957 22 4 22H20C20.5304 22 21.0391 21.7893 21.4142 21.4142C21.7893 21.0391 22 20.5304 22 20V13H2V20ZM16 17H18V20H16V17ZM11 15H13V20H11V15ZM6 17H8V20H6V17ZM7 9L5 7H19L17 9L18 10L21 7L22 6L21 5L18 2L17 3L19 5H5L7 3L6 2L2 6L6 10L7 9Z" fill="#0F1621"/>
</svg>

<svg xmlns="http://www.w3.org/2000/svg" width="24" height="24" viewBox="0 0 24 24"><rect width="24" height="24" style="fill:none"/><path d="M2,20a2,2,0,0,0,2,2H20a2,2,0,0,0,2-2V13H2Zm14-3h2v3H16Zm-5-2h2v5H11ZM6,17H8v3H6ZM7,9,5,7H19L17,9l1,1,3-3h0l1-1L21,5h0L18,2,17,3l2,2H5L7,3,6,2,2,6l4,4Z"/></svg>
